X: 439
T: the Girls I Have Courted   #2
N: Irish title: cailini.de do .bias a suiri.de
R: aie
%S: s:2 b:10(6+4)
B: O'Neill's 1850 #439
O: J.O'Neill
Z: Transcribed by henrik.norbeck@mailbox.swipnet.se
N: Compacted via repeats and multiple endings [JC]
N: Compacted by using labels and play order [JC]
N: Changed from L:1/8 to L:1/16 to make the ABC more legible.
P: Play A2A2 BA2
Q: "Playful"
M: 3/4
L: 1/16
K: G
"^A"|: (DE/F/) G2B2 | A4 G2E2 F2AB | c4 B2d2 [1 c2A2 | G4 A2G2 {A2}G2>F2 | D6 :|[2 e2c2 | A4 F2A2 G2G2 | "^fine"G6 |]
"^B"[| zB/c/  d2f2 | g4 g2fe d2c2 | B4 A2Bc d2d2 | c4 A2>F2 G2F2 | "^->A2"D6 |]
